src/images/pages/cashier/bitcoin-icon.svg

<svg width="72" height="45" viewBox="0 0 72 45" fill="none" xmlns="http://www.w3.org/2000/svg">
<path d="M48.8393 20.4693C49.2162 20.4693 49.5536 20.5054 49.8495 20.5789C50.1476 20.6524 50.4177 20.7476 50.6613 20.8672L50.0201 22.3558C49.8524 22.2866 49.6783 22.2261 49.4985 22.1698C49.3186 22.1136 49.0987 22.0862 48.8393 22.0862C48.2182 22.0862 47.7274 22.3046 47.362 22.7401C46.998 23.1762 46.8153 23.7622 46.8153 24.4983C46.8153 24.9344 46.907 25.2869 47.0919 25.5565C47.276 25.8261 47.6163 25.9602 48.1093 25.9602C48.3529 25.9602 48.5886 25.9342 48.8135 25.8838C49.0399 25.8326 49.2405 25.7684 49.4168 25.6913L49.5558 27.2174C49.3208 27.3111 49.0614 27.3947 48.777 27.469C48.4918 27.5396 48.1522 27.5771 47.7582 27.5771C47.2388 27.5771 46.7989 27.4992 46.4392 27.3464C46.0788 27.1907 45.7815 26.9845 45.5472 26.7236C45.3122 26.4619 45.1431 26.157 45.0385 25.8059C44.9339 25.4556 44.8809 25.0872 44.8809 24.703C44.8809 24.122 44.9726 23.5741 45.1567 23.0608C45.3401 22.5476 45.6052 22.0985 45.9491 21.7128C46.2916 21.33 46.7086 21.0258 47.1994 20.8031C47.6887 20.581 48.2354 20.4693 48.8386 20.4693H48.8393ZM33.5716 17.4424L32.7936 20.7512C32.9598 20.6748 33.1281 20.6156 33.2951 20.5724C33.4634 20.5291 33.6433 20.5075 33.8353 20.5075C34.2379 20.5075 34.5861 20.581 34.8784 20.7259C35.1722 20.8716 35.4144 21.0684 35.6092 21.3163C35.8005 21.565 35.9431 21.8555 36.0355 22.1886C36.1272 22.5223 36.1731 22.8813 36.1731 23.2663C36.1731 23.8567 36.067 24.4146 35.8528 24.9401C35.6393 25.4664 35.3492 25.9234 34.9795 26.3134C34.6105 26.7027 34.1749 27.009 33.6726 27.2361C33.1711 27.4625 32.6259 27.5764 32.0398 27.5764C31.9646 27.5764 31.8314 27.5742 31.6429 27.5699C31.4552 27.5663 31.2388 27.5461 30.9967 27.5122C30.7531 27.4783 30.4952 27.4271 30.2236 27.3579C29.9514 27.2909 29.6934 27.1957 29.4506 27.0761L31.625 17.7502L33.5716 17.4424ZM54.2464 20.4693C54.682 20.4693 55.0653 20.5385 55.3971 20.6748C55.7266 20.8117 55.9989 21.0049 56.2138 21.2522C56.4266 21.5009 56.5878 21.7928 56.6967 22.1316C56.8063 22.4683 56.8601 22.8431 56.8601 23.2533C56.8601 23.7651 56.7805 24.2791 56.6222 24.7931C56.4639 25.3049 56.2282 25.767 55.9179 26.1786C55.6084 26.5888 55.2215 26.924 54.7558 27.1849C54.2916 27.4452 53.7528 27.5764 53.1409 27.5764C52.6967 27.5764 52.312 27.5072 51.9846 27.3709C51.6586 27.234 51.3885 27.0422 51.175 26.7935C50.9608 26.5462 50.801 26.2528 50.6914 25.9148C50.581 25.5774 50.5287 25.2033 50.5287 24.7938C50.5287 24.2798 50.6097 23.7658 50.7723 23.2533C50.9357 22.7401 51.1764 22.2787 51.496 21.8685C51.8126 21.4576 52.2038 21.1217 52.6638 20.86C53.1237 20.6005 53.6525 20.4693 54.2464 20.4693ZM43.3534 18.6614L42.8755 20.6495H44.9619L44.585 22.2138H42.5116L41.9592 24.5747C41.9083 24.7715 41.8789 24.9553 41.8711 25.1254C41.8618 25.297 41.8832 25.4448 41.9334 25.5687C41.9836 25.6927 42.0731 25.7886 42.2035 25.8571C42.3332 25.9256 42.5187 25.9602 42.7623 25.9602C42.9629 25.9602 43.1585 25.9407 43.3477 25.9025C43.5354 25.8643 43.726 25.811 43.9187 25.7417L44.0577 27.2051C43.8062 27.2988 43.534 27.3796 43.2409 27.448C42.9472 27.5173 42.599 27.5504 42.1971 27.5504C41.6196 27.5504 41.1718 27.4625 40.8523 27.288C40.5342 27.1128 40.3085 26.8728 40.1738 26.5686C40.0405 26.2658 39.9811 25.9169 39.9982 25.524C40.0154 25.1297 40.0735 24.716 40.1738 24.2798L41.4061 18.9692L43.3534 18.6614ZM39.7761 20.6495L38.1928 27.3969H36.3329L37.9033 20.6495H39.7761ZM60.4703 20.6495L58.8869 27.3969H57.0256L58.5968 20.6495H60.4703ZM64.4724 20.4953C65.4533 20.4953 66.1296 20.7865 66.5029 21.3675C66.8754 21.9493 66.9399 22.7451 66.6985 23.7536L65.843 27.3969H63.9709L64.7998 23.8307C64.85 23.6073 64.8901 23.3924 64.9195 23.1819C64.9489 22.9736 64.9474 22.7898 64.9123 22.6312C64.8794 22.4741 64.802 22.345 64.6809 22.2455C64.5584 22.1475 64.3728 22.0985 64.1214 22.0985C63.8785 22.0985 63.632 22.1251 63.3805 22.1763L62.1611 27.3969H60.2883L61.8094 20.9573C61.9505 20.9148 62.1081 20.8643 62.2801 20.8096C62.452 20.7541 62.644 20.7029 62.859 20.6567C63.071 20.6092 63.3103 20.5702 63.5747 20.5407C63.8384 20.5097 64.1386 20.4953 64.4724 20.4953ZM33.371 22.0985C33.2535 22.0985 33.1016 22.1215 32.9132 22.1626C32.7241 22.2059 32.555 22.296 32.4038 22.4322L31.5749 25.9465L31.7067 25.9724C31.7432 25.9811 31.7841 25.9868 31.8249 25.9919C31.8679 25.9962 31.9173 25.9991 31.9768 25.9991H32.2025C32.4962 25.9991 32.7721 25.9256 33.0314 25.7807C33.2915 25.6365 33.5165 25.4404 33.7049 25.1968C33.8926 24.9524 34.0416 24.6777 34.1505 24.3692C34.2587 24.0614 34.3139 23.7406 34.3139 23.4069C34.3139 22.996 34.2465 22.6759 34.1133 22.4445C33.9793 22.2138 33.7314 22.0985 33.3717 22.0985H33.371ZM54.0709 22.0862C53.7951 22.0862 53.5515 22.1677 53.343 22.3292C53.1331 22.4928 52.9575 22.6975 52.8157 22.9455C52.6724 23.1942 52.5656 23.4652 52.4933 23.7601C52.423 24.0556 52.3879 24.3346 52.3879 24.5999C52.3879 25.0281 52.4553 25.3619 52.5885 25.6019C52.7232 25.8398 52.9654 25.9602 53.3172 25.9602C53.5945 25.9602 53.8366 25.8794 54.0465 25.7158C54.2543 25.5543 54.4306 25.3482 54.5739 25.1002C54.7164 24.8529 54.8232 24.5812 54.8955 24.2856C54.9658 23.9915 55.0016 23.7103 55.0016 23.4458C55.0016 23.019 54.9342 22.6845 54.7995 22.4452C54.6656 22.2059 54.4227 22.0862 54.0709 22.0862ZM39.3749 17.57C39.6343 17.57 39.8686 17.6493 40.0778 17.8071C40.287 17.9657 40.3923 18.2079 40.3923 18.5316C40.3923 18.7118 40.3565 18.8805 40.2848 19.0391C40.2139 19.1977 40.12 19.3339 40.0025 19.45C39.8865 19.5653 39.7489 19.6562 39.5942 19.7254C39.4387 19.7946 39.2739 19.827 39.0984 19.827C38.839 19.827 38.604 19.7477 38.3948 19.5899C38.1842 19.4327 38.0796 19.1912 38.0796 18.8654C38.0796 18.6852 38.1154 18.5179 38.187 18.3586C38.2587 18.2 38.3518 18.0645 38.47 17.9477C38.5875 17.8331 38.723 17.7415 38.8784 17.6723C39.0332 17.6039 39.1987 17.57 39.3749 17.57ZM60.0676 17.57C60.3277 17.57 60.5627 17.6493 60.7719 17.8071C60.9811 17.9657 61.0872 18.2079 61.0872 18.5316C61.0872 18.7118 61.0492 18.8805 60.979 19.0391C60.9088 19.1977 60.8142 19.3339 60.6974 19.45C60.5792 19.5653 60.4438 19.6562 60.289 19.7254C60.1336 19.7946 59.9681 19.827 59.7918 19.827C59.5325 19.827 59.2975 19.7477 59.0883 19.5899C58.879 19.4327 58.7737 19.1912 58.7737 18.8654C58.7737 18.6852 58.8095 18.5179 58.8812 18.3586C58.9514 18.2 59.046 18.0645 59.1635 17.9477C59.281 17.8331 59.4178 17.7415 59.5719 17.6723C59.7266 17.6039 59.8921 17.57 60.0676 17.57Z" fill="#4D4D4D"/>
<circle cx="15.75" cy="22.5" r="10.125" fill="#F7931B"/>
<path fill-rule="evenodd" clip-rule="evenodd" d="M14.8517 17.7324L15.2987 15.9062L16.3874 16.183L15.9491 17.9731C16.2426 18.0423 16.5366 18.1116 16.8229 18.1836L17.257 16.405L18.3457 16.6817L17.9002 18.5093C19.2754 18.9922 20.281 19.7172 20.0819 21.0663C19.9401 22.0522 19.4043 22.5307 18.6924 22.6979C19.6694 23.2182 20.1664 24.0139 19.6937 25.3961C19.1049 27.1099 17.7082 27.2555 15.8517 26.8951L15.4004 28.7401L14.3117 28.4633L14.7558 26.6443C14.475 26.5723 14.1856 26.4959 13.8877 26.4137L13.4421 28.2414L12.3534 27.9646L12.8047 26.1168C12.074 25.9268 11.3432 25.7379 10.6115 25.5518L11.1515 24.2791C11.1515 24.2791 11.9537 24.4953 11.9437 24.4809C12.2517 24.5587 12.3878 24.3526 12.4422 24.2157C12.8504 22.5482 13.2575 20.8805 13.6642 19.2127C13.6785 18.9763 13.5983 18.678 13.1571 18.5655C13.1743 18.5526 12.3663 18.3652 12.3663 18.3652L12.6557 17.1775C13.387 17.3636 14.1165 17.5621 14.8517 17.7324ZM15.103 22.6892C15.0023 22.6662 14.9134 22.6458 14.8403 22.6273L14.2429 25.0747C14.3035 25.0901 14.3745 25.1093 14.454 25.1307C15.3418 25.3704 17.2861 25.8953 17.595 24.6279C17.9113 23.3316 16.0208 22.8992 15.103 22.6892ZM15.8799 19.3396C15.7942 19.3203 15.7186 19.3033 15.6568 19.2877L15.1139 21.5073C15.1658 21.5205 15.2267 21.5371 15.2951 21.5556C16.037 21.7573 17.6497 22.1956 17.9317 21.0461C18.219 19.8663 16.6462 19.5122 15.8799 19.3396Z" fill="white"/>
</svg>

<svg width="72" height="45" fill="none" xmlns="http://www.w3.org/2000/svg"><path d="M48.84 20.47a4.018 4.018 0 011.822.398l-.642 1.488a6.307 6.307 0 00-.522-.186c-.18-.056-.4-.084-.659-.084-.62 0-1.112.219-1.477.654-.364.436-.547 1.022-.547 1.758 0 .436.092.789.277 1.058.184.27.524.404 1.017.404a3.35 3.35 0 001.308-.269l.139 1.526a6.633 6.633 0 01-.779.252c-.285.07-.625.108-1.019.108-.52 0-.96-.078-1.319-.23a2.517 2.517 0 01-.892-.623 2.36 2.36 0 01-.508-.918 3.839 3.839 0 01-.158-1.103c0-.581.092-1.129.276-1.642.183-.513.448-.962.792-1.348.343-.383.76-.687 1.25-.91a3.922 3.922 0 011.64-.334zm-15.268-3.028l-.778 3.31c.166-.077.334-.136.501-.18a2.16 2.16 0 01.54-.064c.403 0 .751.073 1.043.218.294.146.536.342.731.59.191.249.334.54.426.873.092.333.138.692.138 1.077a4.39 4.39 0 01-.32 1.674 4.345 4.345 0 01-.873 1.373c-.37.39-.805.696-1.307.923a3.925 3.925 0 01-1.633.34c-.075 0-.209-.002-.397-.006a5.517 5.517 0 01-.646-.058 7.108 7.108 0 01-.773-.154 3.804 3.804 0 01-.773-.282l2.174-9.326 1.947-.308zm20.674 3.027c.436 0 .82.07 1.151.206.33.137.602.33.817.577.213.249.374.54.483.88.11.336.163.711.163 1.121 0 .512-.08 1.026-.238 1.54a4.485 4.485 0 01-.704 1.386c-.31.41-.697.745-1.162 1.006-.464.26-1.003.391-1.615.391-.444 0-.829-.069-1.156-.205a2.137 2.137 0 01-.81-.577 2.501 2.501 0 01-.484-.88 3.593 3.593 0 01-.162-1.12c0-.514.08-1.028.243-1.54.164-.514.404-.975.724-1.386a3.88 3.88 0 011.168-1.008c.46-.26.989-.39 1.582-.39zm-10.893-1.808l-.477 1.988h2.086l-.377 1.565h-2.073l-.553 2.36c-.05.197-.08.381-.088.551-.01.172.012.32.062.444s.14.22.27.288c.13.069.316.103.56.103.2 0 .395-.02.585-.058.187-.038.378-.091.57-.16l.14 1.463a6.705 6.705 0 01-.817.243c-.294.07-.642.102-1.044.102-.577 0-1.025-.088-1.345-.262a1.51 1.51 0 01-.678-.72 2.317 2.317 0 01-.176-1.044c.017-.394.076-.808.176-1.244l1.232-5.31 1.947-.309zm-3.577 1.988l-1.583 6.748h-1.86l1.57-6.747h1.873zm20.694 0l-1.583 6.748h-1.861l1.57-6.747h1.874zm4.002-.154c.981 0 1.658.291 2.03.872.373.582.438 1.378.197 2.387l-.856 3.643h-1.872l.829-3.566c.05-.224.09-.439.12-.65.029-.207.027-.391-.008-.55a.66.66 0 00-.231-.386c-.123-.098-.308-.146-.56-.146-.242 0-.489.026-.74.077l-1.22 5.22h-1.873l1.521-6.439c.142-.042.3-.093.471-.147a6.688 6.688 0 011.295-.269c.263-.031.564-.046.897-.046zM33.371 22.1c-.117 0-.27.023-.458.064-.189.043-.358.133-.51.27l-.828 3.514.132.025a1.125 1.125 0 00.27.027h.226c.293 0 .57-.073.828-.218.26-.144.486-.34.674-.584a2.97 2.97 0 00.609-1.79c0-.411-.068-.731-.2-.962-.135-.231-.383-.346-.742-.346h-.001zm20.7-.013c-.276 0-.52.082-.728.243-.21.164-.386.369-.527.616-.144.25-.25.52-.323.815-.07.296-.105.575-.105.84 0 .428.067.762.2 1.002.135.238.377.358.73.358.276 0 .519-.08.729-.244a2.1 2.1 0 00.527-.616c.142-.247.25-.519.322-.814.07-.295.106-.576.106-.84 0-.427-.068-.762-.203-1-.133-.24-.376-.36-.728-.36zM39.375 17.57c.26 0 .494.08.703.237.209.159.314.4.314.725 0 .18-.036.349-.107.507a1.338 1.338 0 01-.69.686c-.156.07-.321.102-.497.102-.259 0-.494-.08-.703-.237-.21-.157-.315-.399-.315-.725 0-.18.035-.347.107-.506a1.35 1.35 0 01.691-.687c.155-.068.32-.102.497-.102zm20.693 0c.26 0 .495.08.704.237.21.159.315.4.315.725 0 .18-.038.349-.108.507a1.336 1.336 0 01-.69.686c-.155.07-.32.102-.497.102-.26 0-.495-.08-.704-.237-.209-.157-.314-.399-.314-.725 0-.18.035-.347.107-.506a1.334 1.334 0 01.69-.687c.156-.068.321-.102.497-.102z" fill="#4D4D4D"/><circle cx="15.75" cy="22.5" r="10.125" fill="#F7931B"/><path fill-rule="evenodd" clip-rule="evenodd" d="M14.852 17.732l.447-1.826 1.088.277-.438 1.79c.294.07.588.139.874.21l.434-1.778 1.089.277-.446 1.827c1.375.483 2.381 1.208 2.182 2.557-.142.986-.678 1.465-1.39 1.632.977.52 1.474 1.316 1.002 2.698-.59 1.714-1.986 1.86-3.842 1.5L15.4 28.74l-1.088-.277.444-1.819a49.17 49.17 0 01-.868-.23l-.446 1.827-1.089-.276.452-1.848c-.731-.19-1.462-.38-2.194-.565l.54-1.273s.803.216.793.202c.308.078.444-.128.498-.265.408-1.668.816-3.335 1.222-5.003.014-.237-.066-.535-.507-.648.017-.012-.79-.2-.79-.2l.289-1.188c.731.187 1.46.385 2.196.555zm.251 4.957c-.1-.023-.19-.043-.263-.062l-.597 2.448.211.056c.888.24 2.832.764 3.141-.503.316-1.296-1.574-1.729-2.492-1.939zm.777-3.35l-.223-.051-.543 2.22c.052.012.113.03.181.048.742.201 2.355.64 2.637-.51.287-1.18-1.286-1.534-2.052-1.706z" fill="#fff"/></svg>
